app/images/icons/customer-icon.svg

<?xml version="1.0" encoding="UTF-8" standalone="no"?>
<svg width="76px" height="77px" viewBox="0 0 76 77" version="1.1" xmlns="http://www.w3.org/2000/svg" xmlns:xlink="http://www.w3.org/1999/xlink" xmlns:sketch="http://www.bohemiancoding.com/sketch/ns">
    <!-- Generator: Sketch 3.1 (8751) - http://www.bohemiancoding.com/sketch -->
    <title>customer-icon</title>
    <desc>Created with Sketch.</desc>
    <defs></defs>
    <g id="Page-1" stroke="none" stroke-width="1" fill="none" fill-rule="evenodd" sketch:type="MSPage">
        <g id="customer-icon" sketch:type="MSLayerGroup" fill="#1B1A19">
            <path d="M31.578,38.3280667 C23.4586667,38.3280667 16.872,30.2974 16.872,20.4300667 C16.872,20.026 16.8973333,19.6194 16.9226667,19.2140667 C18.506,19.8094 20.1526667,20.102 21.9893333,20.102 C26.448,20.102 31.35,17.9094 33.9593333,14.9580667 C36.4926667,18.6314 39.482,20.368 43.3073333,20.368 C44.2193333,20.368 45.1693333,20.2666667 46.1826667,20.0766667 L46.2586667,20.0766667 C46.2586667,20.1894 46.2713333,20.3034 46.2713333,20.4300667 C46.2713333,30.2974 39.6846667,38.3280667 31.578,38.3280667 L31.578,38.3280667 Z M31.578,2.53206667 C38.874,2.53206667 44.9286667,9.044 46.0686667,17.5420667 C45.9546667,17.5547333 45.8406667,17.5674 45.7013333,17.594 C40.9006667,18.5174 37.924,16.9594 35.112,12.0447333 L33.972,10.0307333 L32.8953333,12.084 C31.3753333,14.9960667 26.2706667,17.5674 21.9893333,17.5674 C20.2413333,17.5674 18.7086667,17.2380667 17.214,16.5920667 C18.6706667,8.5614 24.548,2.53206667 31.578,2.53206667 L31.578,2.53206667 Z M48.8046667,20.4300667 C48.8046667,9.158 41.078,0 31.578,0 C22.0653333,0 14.3386667,9.158 14.3386667,20.4300667 C14.3386667,27.892 17.746,34.4140667 22.8,37.9860667 L22.8,44.7120667 L7.19466667,50.502 C2.888,52.0460667 0,56.1500667 0,60.7227333 L0,70.9320667 L35.4666667,70.9320667 L35.4666667,68.4 L2.53333333,68.4 L2.53333333,60.7227333 C2.53333333,57.2140667 4.75,54.0727333 8.06866667,52.8820667 L25.3333333,46.4727333 L25.3333333,39.4554 C27.2713333,40.3547333 29.374,40.8614 31.578,40.8614 C33.8453333,40.8614 36.0113333,40.3294 38,39.368 L38,45.6 L40.5333333,45.6 L40.5333333,37.8467333 C45.486,34.2620667 48.8046667,27.8033333 48.8046667,20.4300667 L48.8046667,20.4300667 Z" id="Fill-1630" sketch:type="MSShapeGroup"></path>
            <path d="M59.9766667,73.3387333 C57.304,71.6806667 46.8666667,64.5860667 46.8666667,54.8200667 C46.8666667,50.8174 48.792,48.2334 51.7813333,48.2334 C54.226,48.2334 57.342,50.1587333 58.7733333,54.4527333 C58.9506667,54.9720667 59.432,55.3267333 59.9766667,55.3267333 C60.5213333,55.3267333 61.0026667,54.9720667 61.18,54.4527333 C62.6366667,50.0966667 65.8413333,48.1320667 68.362,48.1320667 C71.2373333,48.1320667 73.0866667,50.4500667 73.0866667,54.0486667 C73.0866667,64.4594 62.6493333,71.6667333 59.9766667,73.3387333 L59.9766667,73.3387333 Z M68.362,45.6 C65.5373333,45.6 62.13,47.2834 59.9766667,50.9694 C58.0766667,47.7014 55.062,45.7000667 51.7813333,45.7000667 C48.07,45.7000667 44.3333333,48.5133333 44.3333333,54.8200667 C44.3333333,67.4360667 58.748,75.5807333 59.3686667,75.9227333 C59.5586667,76.0367333 59.7613333,76.0886667 59.9766667,76.0886667 C60.192,76.0886667 60.4073333,76.0367333 60.5973333,75.9227333 C61.2053333,75.5807333 75.62,67.4246667 75.62,54.0486667 C75.62,48.2080667 71.972,45.6 68.362,45.6 L68.362,45.6 Z" id="Fill-1631" sketch:type="MSShapeGroup"></path>
        </g>
    </g>
</svg>

<svg width="76" height="77" viewBox="0 0 76 77" xmlns="http://www.w3.org/2000/svg">
    <desc>
        Created with Sketch.
    </desc>
    <g fill="#1B1A19">
        <path d="M31.578 38.328c-8.12 0-14.706-8.03-14.706-17.898 0-.404.025-.81.05-1.216 1.584.595 3.23.888 5.067.888 4.458 0 9.36-2.193 11.97-5.144 2.533 3.673 5.522 5.41 9.347 5.41.912 0 1.862-.1 2.876-.29h.076c0 .11.01.225.01.352 0 9.867-6.585 17.898-14.692 17.898zm0-35.796c7.296 0 13.35 6.512 14.49 15.01-.113.013-.227.025-.367.052-4.8.923-7.776-.635-10.588-5.55l-1.14-2.013-1.077 2.054c-1.52 2.912-6.624 5.483-10.906 5.483-1.75 0-3.28-.33-4.776-.975 1.457-8.03 7.334-14.06 14.364-14.06zM48.805 20.43C48.805 9.158 41.078 0 31.578 0c-9.513 0-17.24 9.158-17.24 20.43 0 7.462 3.408 13.984 8.462 17.556v6.726l-15.605 5.79C2.888 52.046 0 56.15 0 60.722v10.21h35.467V68.4H2.533v-7.677c0-3.51 2.217-6.65 5.536-7.84l17.263-6.41v-7.018c1.938.9 4.04 1.406 6.245 1.406 2.267 0 4.433-.53 6.422-1.492V45.6h2.533v-7.753c4.953-3.585 8.272-10.044 8.272-17.417z"/>
        <path d="M59.977 73.34c-2.673-1.66-13.11-8.754-13.11-18.52 0-4.003 1.925-6.587 4.914-6.587 2.446 0 5.562 1.926 6.993 6.22.178.52.66.874 1.204.874.544 0 1.026-.355 1.203-.874 1.457-4.356 4.66-6.32 7.182-6.32 2.875 0 4.725 2.317 4.725 5.916 0 10.41-10.438 17.617-13.11 19.29zm8.385-27.74c-2.825 0-6.232 1.683-8.385 5.37-1.9-3.27-4.915-5.27-8.196-5.27-3.71 0-7.447 2.813-7.447 9.12 0 12.616 14.415 20.76 15.036 21.103.19.114.39.166.607.166.215 0 .43-.053.62-.167.608-.342 15.023-8.498 15.023-21.874 0-5.842-3.648-8.45-7.258-8.45z"/>
    </g>
</svg>
